public/Images/foot.svg

<svg width="177" height="96" viewBox="0 0 177 96" fill="none" xmlns="http://www.w3.org/2000/svg">
<g clip-path="url(#clip0)">
<path d="M22.6464 -0.0224609L81.616 0.113265L85.8988 24.6053L75.6217 24.7486C75.6217 24.7486 71.4835 46.6843 71.9094 50.9297C71.9094 50.9297 80.1934 65.6491 76.3367 72.0435C76.3367 72.0435 21.9313 104.174 0.228524 93.4137C0.228524 93.4137 -1.91665 88.3238 6.93792 82.1027C6.93792 82.1027 29.6449 57.8973 29.5003 56.3363C29.3558 54.7754 30.4969 40.3426 27.4997 27.3199L23.0724 26.3321L22.6464 -0.0224609Z" fill="#A78C76"/>
<path d="M95.1771 -0.0227051L90.8867 23.753L100.601 24.3185L104.884 51.2537C104.884 51.2537 92.3169 71.9151 104.024 74.7504C104.024 74.7504 163.427 105.32 176.291 93.1496C176.291 93.1496 179.432 91.4529 172.578 84.9378C165.725 78.4227 140.88 59.7445 146.304 42.7554L148.304 26.92L152.869 26.641L153.15 0.309085H99.7489" fill="#A78C76"/>
</g>
<defs>
<clipPath id="clip0">
<rect width="177" height="96" fill="white"/>
</clipPath>
</defs>
</svg>

<svg xmlns="http://www.w3.org/2000/svg" width="177" height="96" fill="none"><g clip-path="url(#A)" fill="#a78c76"><path d="M22.646-.022l58.97.136 4.284 24.49-10.277.143s-4.138 21.936-3.712 26.18c0 0 8.284 14.72 4.427 21.114 0 0-54.405 32.13-76.108 21.37 0 0-2.145-5.1 6.7-11.3 0 0 22.707-24.205 22.562-25.766s.997-15.994-2-29.016l-4.427-.988L22.65-.023zm72.53-.001l-4.3 23.776 9.714.566 4.283 26.935s-12.567 20.66-.86 23.497c0 0 59.403 30.57 72.267 18.4 0 0 3.14-1.697-3.713-8.212s-31.698-25.193-26.274-42.182l2-15.835 4.565-.28L153.14.3h-53.4"/></g><defs><clipPath id="A"><path fill="#fff" d="M0 0h177v96H0z"/></clipPath></defs></svg>
